X:4
T:Turnpike Gate. Pn1801.04, The
M:6/8
L:1/8
Q:3/8=120
C:"404"
W:1st & 2nd Cu:Set & hands across .| same back again :|
W:lead down the middle and up again :|. right and left at top :||:
B:Preston 24 for 1801
Z:Village Music Project, John Adams, 2017
K:C
cGc edc|cGc edc|cGc edc|f3d2z|cGc edc|cGc edc|a2c' b2g|e3c2z:|
|:c2e dBG| F2A GEC|c2e dBG|A3c2z|c2e dBG|F2A GEC|C>DC E2G| c3C2z:|
